assets/img/braze_icons/youtube.svg

<svg fill="none" height="24" viewBox="0 0 24 24" width="24" xmlns="http://www.w3.org/2000/svg"><path clip-rule="evenodd" d="m13.0114 4.00599c-.1642-.0016-.3127-.00277-.4421-.00363-.0229-.00156-.046-.00236-.0693-.00236h-1c-.0245 0-.0488.00088-.0728.00261-.1289.00094-.2764.00222-.4395.00396-.6149.00655-1.45215.01966-2.33984.04594-.8861.02623-1.83043.0658-2.65695.12586-.79865.05802-1.57193.14023-2.06612.27189l-.01383.00379c-.59672.16818-1.13876.49037-1.57118.93445-.43245.44412-.73993.99442-.89095 1.5955-.00545.02169-.01017.04355-.01416.06555-.29675 1.63927-.442082 3.30215-.43417 4.96785-.010226 1.6783.13512 3.3539.43418 5.0055.0059.0326.01342.0649.02252.0967.16649.5824.48083 1.1117.91223 1.5371.43139.4253.96524.7322 1.54981.8916l.00555.0014c.49419.1317 1.26747.2139 2.06612.2719.82652.0601 1.77085.0997 2.65695.1259.88769.0263 1.72494.0394 2.33984.0459.1631.0018.3106.0031.4395.004.024.0017.0483.0026.0728.0026h1c.0245 0 .0488-.0009.0728-.0026.1289-.0009.2764-.0022.4395-.004.6149-.0065 1.4521-.0196 2.3398-.0459.8861-.0262 1.8305-.0658 2.657-.1259.7986-.058 1.5719-.1402 2.0661-.2719l.0138-.0038c.5968-.1681 1.1388-.4903 1.5712-.9344.4325-.4441.74-.9944.891-1.5955.0054-.0217.0102-.0436.0141-.0656.2945-1.6271.4399-3.2776.4342-4.9309.0103-1.6785-.1351-3.35437-.4342-5.00621-.004-.02199-.0087-.04384-.0141-.06551-.151-.60108-.4585-1.15139-.891-1.5955-.4324-.44409-.9744-.76627-1.5712-.93445-.0115-.00326-.0232-.00632-.0349-.00916-.4863-.11829-1.2523-.19302-2.0513-.24602-.8248-.05472-1.7677-.09081-2.6532-.11474-.887-.02398-1.7237-.03594-2.3382-.04192zm-3.16166 4.61009c-.09974.13323-.09974.37187-.09974.84916v5.06936c0 .4773 0 .7159.09974.8491.08692.1161.21996.1888.36466.1991.166.0119.3667-.1172.7682-.3753l3.9428-2.5347c.3484-.2239.5226-.3359.5828-.4783.0525-.1244.0525-.2648 0-.3892-.0602-.1424-.2344-.2544-.5828-.4783l-3.9428-2.5347c-.4015-.2581-.6022-.38715-.7682-.37529-.1447.01033-.27774.08297-.36466.19907z" fill="#801ed7" fill-rule="evenodd"/></svg>

<svg width="24" height="24" viewBox="0 0 24 24" fill="none" xmlns="http://www.w3.org/2000/svg">
<path fill-rule="evenodd" clip-rule="evenodd" d="M13.0114 4.00599C12.8472 4.00439 12.6987 4.00322 12.5693 4.00236C12.5464 4.0008 12.5233 4 12.5 4H11.5C11.4755 4 11.4512 4.00088 11.4272 4.00261C11.2983 4.00355 11.1508 4.00483 10.9877 4.00657C10.3728 4.01312 9.53555 4.02623 8.64786 4.05251C7.76176 4.07874 6.81743 4.11831 5.99091 4.17837C5.19226 4.23639 4.41898 4.3186 3.92479 4.45026L3.91096 4.45405C3.31424 4.62223 2.7722 4.94442 2.33978 5.3885C1.90733 5.83262 1.59985 6.38292 1.44883 6.984C1.44338 7.00569 1.43866 7.02755 1.43467 7.04955C1.13792 8.68882 0.992588 10.3517 1.0005 12.0174C0.990274 13.6957 1.13562 15.3713 1.43468 17.0229C1.44058 17.0555 1.4481 17.0878 1.4572 17.1196C1.62369 17.702 1.93803 18.2313 2.36943 18.6567C2.80082 19.082 3.33467 19.3889 3.91924 19.5483L3.92479 19.5497C4.41898 19.6814 5.19226 19.7636 5.99091 19.8216C6.81743 19.8817 7.76176 19.9213 8.64786 19.9475C9.53555 19.9738 10.3728 19.9869 10.9877 19.9934C11.1508 19.9952 11.2983 19.9965 11.4272 19.9974C11.4512 19.9991 11.4755 20 11.5 20H12.5C12.5245 20 12.5488 19.9991 12.5728 19.9974C12.7017 19.9965 12.8492 19.9952 13.0123 19.9934C13.6272 19.9869 14.4644 19.9738 15.3521 19.9475C16.2382 19.9213 17.1826 19.8817 18.0091 19.8216C18.8077 19.7636 19.581 19.6814 20.0752 19.5497L20.089 19.5459C20.6858 19.3778 21.2278 19.0556 21.6602 18.6115C22.0927 18.1674 22.4002 17.6171 22.5512 17.016C22.5566 16.9943 22.5614 16.9724 22.5653 16.9504C22.8598 15.3233 23.0052 13.6728 22.9995 12.0195C23.0098 10.341 22.8644 8.66513 22.5653 7.01329C22.5613 6.9913 22.5566 6.96945 22.5512 6.94778C22.4002 6.3467 22.0927 5.79639 21.6602 5.35228C21.2278 4.90819 20.6858 4.58601 20.089 4.41783C20.0775 4.41457 20.0658 4.41151 20.0541 4.40867C19.5678 4.29038 18.8018 4.21565 18.0028 4.16265C17.178 4.10793 16.2351 4.07184 15.3496 4.04791C14.4626 4.02393 13.6259 4.01197 13.0114 4.00599ZM9.84974 8.61608C9.75 8.74931 9.75 8.98795 9.75 9.46524V14.5346C9.75 15.0119 9.75 15.2505 9.84974 15.3837C9.93666 15.4998 10.0697 15.5725 10.2144 15.5828C10.3804 15.5947 10.5811 15.4656 10.9826 15.2075L14.9254 12.6728C15.2738 12.4489 15.448 12.3369 15.5082 12.1945C15.5607 12.0701 15.5607 11.9297 15.5082 11.8053C15.448 11.6629 15.2738 11.5509 14.9254 11.327L10.9826 8.7923C10.5811 8.5342 10.3804 8.40515 10.2144 8.41701C10.0697 8.42734 9.93666 8.49998 9.84974 8.61608Z" fill="#801ED7"/>
</svg>
